X: 35
T: This Is My Love, Do You Like Her?
Z: JACKB
S: https://thesession.org/tunes/6#setting51016
R: jig
M: 6/8
L: 1/8
K: Emin
|:A3 AGE| c2B c2d|e3 ede g3 g2e|
def g2e dBA G2A|1 B2e d2B A2B c2B:|2 B2e d2B A3 ABd||
|:eaa age dgg gfg|eaa agf g2b a2g|
eaf g2e dBA G2A|1 B2e d2B A3 ABd:|2 B2e d2B A2B c2B||

